static/logos/flatfile-frame-color.svg

<svg width="104" height="24" viewBox="0 0 104 24" fill="none" xmlns="http://www.w3.org/2000/svg">
<g clip-path="url(#clip0_1_2742)">
<path d="M5.9173 13.121C5.62328 13.415 5.25574 13.562 4.8147 13.562H3.30781H1.13936C0.808576 13.562 0.551302 13.4518 0.330781 13.2312C0.147014 13.0107 0 12.7534 0 12.4227V6.79939V1.13936C0 0.808576 0.147014 0.551302 0.330781 0.330781C0.551302 0.147014 0.845329 0 1.13936 0H4.52067H7.90199C8.23277 0 8.49005 0.147014 8.71057 0.330781C8.93109 0.551302 9.04135 0.808576 9.04135 1.13936V5.54977V9.33537C9.04135 9.73966 8.89433 10.1439 8.60031 10.4012L7.27718 11.7243L5.9173 13.121Z" fill="#3B2FC9"/>
<path d="M10.8083 5.9173C10.5142 5.62328 10.3672 5.25574 10.3672 4.85145V3.30781V1.13936C10.3672 0.808576 10.5142 0.551302 10.698 0.330781C10.9185 0.147014 11.2126 0 11.5066 0H17.1299H22.7899C23.1207 0 23.378 0.147014 23.5985 0.330781C23.819 0.551302 23.9293 0.808576 23.9293 1.13936V4.52067V7.90199C23.9293 8.23277 23.7822 8.49005 23.5985 8.71057C23.378 8.93109 23.1207 9.04135 22.7899 9.04135H18.3795H14.5571C14.1528 9.04135 13.7486 8.89433 13.4545 8.60031L12.1314 7.27718L10.8083 5.9173Z" fill="#3B2FC9"/>
<path d="M18.0436 10.879C18.3376 10.585 18.7051 10.438 19.1462 10.438H20.6531H22.7848C23.1155 10.438 23.3728 10.585 23.5933 10.7688C23.8139 10.9893 23.9241 11.2466 23.9241 11.5773V17.2006V22.8239C23.9241 23.1547 23.7771 23.412 23.5933 23.6325C23.3728 23.853 23.1155 23.9633 22.7848 23.9633H19.4034H16.0221C15.6913 23.9633 15.4341 23.8162 15.2135 23.6325C14.993 23.412 14.8828 23.1547 14.8828 22.8239V18.4135V14.6279C14.8828 14.2236 15.0298 13.8193 15.3238 13.562L16.6469 12.2389L18.0436 10.879Z" fill="#3B2FC9"/>
<path d="M13.121 18.0828C13.415 18.3768 13.562 18.7443 13.562 19.1854V20.6923V22.8607C13.562 23.1915 13.415 23.4488 13.2312 23.6693C13.0107 23.8898 12.7534 24.0001 12.4227 24.0001H6.79939H1.13936C0.808576 24.0001 0.551302 23.8531 0.330781 23.6693C0.147014 23.4488 0 23.1548 0 22.8607V19.4794V16.0981C0 15.7673 0.147014 15.51 0.330781 15.2895C0.551302 15.069 0.808576 14.9587 1.13936 14.9587H5.54977H9.33537C9.73966 14.9587 10.1439 15.1058 10.4012 15.3998L11.7243 16.7229L13.121 18.0828Z" fill="#3B2FC9"/>
<path d="M61.8926 18.0827C61.7456 18.1929 61.5986 18.3032 61.4883 18.3767C61.378 18.4502 61.3045 18.487 61.231 18.5237C61.1575 18.5605 61.084 18.5972 61.0473 18.5972C60.9737 18.5972 60.937 18.5972 60.8267 18.5972C60.5327 18.5972 60.3122 18.4502 60.2019 18.1929C60.0917 17.8989 60.0182 17.3844 60.0182 16.6125V13.0475C60.0182 12.4226 59.9814 11.9081 59.9079 11.5773C59.8344 11.2465 59.7241 10.9158 59.5404 10.6217C58.9523 9.70289 57.8129 9.2251 56.159 9.2251C54.9462 9.2251 53.9538 9.44562 53.2188 9.84991C52.4837 10.2542 52.1529 10.8422 52.1529 11.5773C52.1529 11.9449 52.2632 12.2756 52.4837 12.4962C52.7042 12.7167 52.9983 12.8637 53.329 12.8637C53.6966 12.8637 54.0273 12.7534 54.2479 12.5329C54.4684 12.3124 54.6154 12.0184 54.6154 11.6876C54.6154 11.3935 54.5051 11.1363 54.3214 10.9525C54.1744 10.8055 54.1009 10.732 54.1009 10.732C54.0641 10.6952 54.0641 10.6952 54.0641 10.6585C54.0641 10.585 54.1009 10.5115 54.2111 10.4012C54.3214 10.3277 54.4316 10.2542 54.5786 10.1807C54.7257 10.1072 54.9094 10.0704 55.0932 10.0337C55.277 9.99692 55.4975 9.99692 55.6812 9.99692C56.6736 9.99692 57.3352 10.2909 57.6659 10.879C57.7394 11.026 57.8129 11.1363 57.8497 11.2833C57.8865 11.3936 57.9232 11.5773 57.96 11.7611C57.9967 11.9449 57.9967 12.1654 58.0335 12.4226C58.0335 12.7167 58.0702 13.0475 58.0702 13.415L56.0488 13.7825L55.2402 13.9295C54.8359 14.003 54.4684 14.0766 54.2111 14.1501C53.9171 14.2236 53.6598 14.2971 53.4393 14.3706C53.2188 14.4441 53.035 14.5543 52.8512 14.6646C52.6675 14.7749 52.5205 14.8851 52.3734 14.9954C51.8589 15.4732 51.6016 16.1347 51.6016 16.9801C51.6016 17.8989 51.8589 18.634 52.4102 19.1485C52.9247 19.6631 53.6598 19.9571 54.5786 19.9571C55.2402 19.9571 55.865 19.8101 56.4163 19.5161C56.9676 19.222 57.5189 18.7442 58.107 18.0827C58.1805 18.3767 58.254 18.634 58.2907 18.781C58.3643 18.928 58.4378 19.075 58.548 19.222C58.695 19.4426 58.8788 19.5896 59.0993 19.6998C59.3198 19.8101 59.5404 19.8836 59.7976 19.8836C60.2019 19.8836 60.5695 19.7733 60.937 19.5896C61.3045 19.4058 61.7456 19.0383 62.2234 18.5972L61.8926 18.0827ZM58.107 13.9663V15.6569C58.107 16.392 57.9967 16.9801 57.7762 17.3476C57.5557 17.7151 57.2616 18.0092 56.8574 18.2297C56.4531 18.4502 56.012 18.5605 55.571 18.5605C54.9829 18.5605 54.5051 18.3767 54.1744 18.0092C53.8068 17.6416 53.6598 17.1638 53.6598 16.5758C53.6598 15.6202 54.1009 14.9954 54.9462 14.6646C55.2402 14.5543 55.6445 14.4441 56.1223 14.3338C56.6001 14.2603 57.2616 14.1133 58.107 13.9663Z" fill="#090B2B"/>
<path d="M69.3883 18.2295C69.0208 18.3766 68.69 18.4868 68.4695 18.5236C68.2489 18.5971 68.0284 18.5971 67.8446 18.5971C67.2933 18.5971 66.8891 18.4501 66.6318 18.1193C66.3745 17.7885 66.2275 17.3107 66.2275 16.6859V10.5481H69.2413V9.84976H66.2275V5.80688H65.7497L64.3531 7.20352V9.81301H61.8906V10.5113H64.3531V17.3842C64.3531 18.156 64.5368 18.7808 64.9044 19.1484C65.2719 19.5527 65.8232 19.7364 66.5215 19.7364C66.9993 19.7364 67.4771 19.6629 67.9549 19.4792C68.4327 19.3322 68.984 19.0381 69.6088 18.6706L69.3883 18.2295Z" fill="#090B2B"/>
<path d="M82.2182 8.15917C82.5857 8.15917 82.9167 8.04891 83.174 7.79163C83.4312 7.53436 83.5413 7.24033 83.5413 6.8728C83.5413 6.50526 83.4312 6.21123 83.174 5.95396C82.9167 5.69669 82.6225 5.58643 82.2549 5.58643C81.9241 5.58643 81.5936 5.69669 81.3363 5.95396C81.079 6.21123 80.9688 6.50526 80.9688 6.83604C80.9688 7.20358 81.079 7.49761 81.3363 7.75488C81.5568 8.01215 81.8874 8.15917 82.2182 8.15917Z" fill="#090B2B"/>
<path d="M102.913 17.1271C102.619 17.4579 102.325 17.7151 102.068 17.9357C101.811 18.1562 101.553 18.3032 101.296 18.4502C101.039 18.5605 100.781 18.6707 100.487 18.7075C100.193 18.7442 99.8993 18.781 99.5318 18.781C98.3189 18.781 97.4001 18.3767 96.7753 17.5681C96.518 17.2006 96.3342 16.7963 96.224 16.3185C96.1137 15.8407 96.0769 15.2159 96.0769 14.4073H103.759C103.722 13.6723 103.648 13.0475 103.575 12.6064C103.464 12.1286 103.317 11.7243 103.097 11.32C102.729 10.6585 102.178 10.1439 101.443 9.7764C100.708 9.40886 99.8993 9.2251 98.9805 9.2251C98.2086 9.2251 97.5103 9.33536 96.8855 9.59263C96.2607 9.84991 95.7462 10.1807 95.3051 10.6217C94.8641 11.0628 94.5333 11.6141 94.3128 12.2756C94.0923 12.9372 93.9453 13.6723 93.9453 14.4441C93.9453 15.2527 94.0555 15.9877 94.3128 16.6493C94.5333 17.3109 94.9008 17.8622 95.3051 18.34C95.7462 18.8177 96.2607 19.1485 96.8855 19.4058C97.5103 19.6631 98.2086 19.7733 98.9805 19.7733C99.4583 19.7733 99.8625 19.7366 100.267 19.6631C100.671 19.5896 101.039 19.4426 101.37 19.2588C101.737 19.075 102.068 18.8545 102.399 18.5605C102.729 18.2664 103.097 17.9357 103.428 17.5314L102.913 17.1271ZM98.8702 9.88666C99.789 9.88666 100.451 10.1807 100.855 10.7687C101.259 11.3568 101.517 12.3124 101.627 13.709H96.0402C96.1505 12.3491 96.4077 11.3568 96.8488 10.7687C97.2898 10.1807 97.9881 9.88666 98.8702 9.88666Z" fill="#090B2B"/>
<path d="M48.6668 18.6707C48.483 18.5972 48.336 18.4869 48.2258 18.3399C48.1155 18.1929 48.0787 17.9724 48.042 17.7151C48.0052 17.4578 48.0052 17.0903 48.0052 16.6492V4.15308L44.2196 5.07191V5.77023C44.5872 5.77023 44.9179 5.80698 45.1385 5.88049C45.3957 5.95399 45.5795 6.06426 45.6898 6.21127C45.8368 6.35828 45.9103 6.5788 45.9838 6.87283C46.0205 7.16686 46.0573 7.53439 46.0573 7.97543V16.6492C46.0573 17.0903 46.0573 17.4211 46.0205 17.7151C45.9838 17.9724 45.947 18.1929 45.8368 18.3399C45.7265 18.4869 45.5795 18.5972 45.3957 18.6707C45.212 18.7442 44.9547 18.7809 44.6239 18.8545L44.1094 18.8912V19.5528H49.9899V18.8912L49.4754 18.8545C49.1078 18.8177 48.8506 18.7442 48.6668 18.6707Z" fill="#090B2B"/>
<path d="M84.2004 18.6706C84.0166 18.5971 83.8696 18.4868 83.7594 18.3398C83.6491 18.1928 83.6124 17.9723 83.5756 17.715C83.5388 17.4577 83.5388 17.0902 83.5388 16.6491V8.93091L79.7532 9.84974V10.5481C80.1208 10.5481 80.4516 10.5848 80.6721 10.6583C80.9294 10.7318 81.1131 10.8421 81.2601 10.9891C81.4072 11.1361 81.4807 11.3566 81.5542 11.6507C81.5909 11.9447 81.6277 12.3122 81.6277 12.7533V16.6859C81.6277 17.1269 81.6277 17.4577 81.5909 17.7517C81.5542 18.009 81.5174 18.2295 81.4072 18.3765C81.2969 18.5236 81.1499 18.6338 80.9661 18.7073C80.7823 18.7808 80.5251 18.8176 80.1943 18.8911L79.6797 18.9278V19.5894H85.5603V18.9278L85.0457 18.8911C84.6414 18.8176 84.3842 18.7441 84.2004 18.6706Z" fill="#090B2B"/>
<path d="M91.5151 18.6707C91.3314 18.5972 91.1844 18.4869 91.0742 18.3399C90.9639 18.1929 90.9272 17.9724 90.8904 17.7151C90.8537 17.4578 90.8536 17.0903 90.8536 16.6492V4.15308L87.1047 5.10867V5.80698C87.4722 5.80698 87.803 5.84373 88.0235 5.91724C88.2808 5.99075 88.4646 6.10101 88.6116 6.24802C88.7586 6.39504 88.8321 6.61556 88.9056 6.90958C88.9424 7.20361 88.9791 7.57115 88.9791 8.01219V16.686C88.9791 17.127 88.9791 17.4578 88.9424 17.7518C88.9056 18.0091 88.8689 18.2296 88.7586 18.3767C88.6484 18.5237 88.5013 18.6339 88.3176 18.7074C88.1338 18.7809 87.8765 18.8177 87.5457 18.8912L87.0312 18.928V19.5895H92.9118V18.928L92.3972 18.8912C91.9929 18.8177 91.7356 18.7442 91.5151 18.6707Z" fill="#090B2B"/>
<path d="M78.1348 5.07203C77.6938 4.77801 77.1425 4.59424 76.4441 4.59424C75.415 4.59424 74.5697 4.92502 73.9449 5.58658C73.3201 6.24814 73.0261 7.16698 73.0261 8.30634C73.0261 8.4166 73.0261 9.00465 73.0261 9.18842C73.0261 9.40894 73.0628 9.59271 73.0628 9.81323H71.0781V10.5115H73.0628V16.6494C73.0628 17.0904 73.0628 17.4212 73.0261 17.7152C72.9893 17.9725 72.9526 18.193 72.8423 18.34C72.732 18.487 72.585 18.5973 72.4013 18.6708C72.2175 18.7443 71.9602 18.7811 71.6294 18.8546L71.1149 18.8913V19.5529H77.1424V18.8913L76.4809 18.8546C76.1501 18.7811 75.8928 18.7443 75.7091 18.6708C75.5253 18.5973 75.3783 18.487 75.268 18.34C75.1578 18.193 75.121 17.9725 75.0843 17.7152C75.0475 17.4579 75.0475 17.0904 75.0475 16.6494V10.5483H77.7673V9.84998H75.0475C75.0108 9.77647 74.7167 8.89439 74.5697 7.9388C74.4962 7.35075 74.4962 6.87295 74.6065 6.46866C74.7167 5.95412 74.974 5.62333 75.3783 5.43957H75.415C75.415 5.43957 75.415 5.43957 75.4518 5.43957C75.4518 5.43957 75.4518 5.43957 75.4885 5.43957H75.5253C75.7091 5.36606 75.8928 5.32931 76.0766 5.32931C76.2604 5.32931 76.4441 5.36606 76.6279 5.43957C76.7749 5.51307 76.8852 5.58658 76.8852 5.66009C76.8852 5.69684 76.8484 5.77035 76.7749 5.84386C76.5544 6.06438 76.4074 6.3584 76.4074 6.68918C76.4074 7.01997 76.5176 7.27724 76.7382 7.49776C76.9587 7.71828 77.2527 7.79179 77.5835 7.79179C77.951 7.79179 78.2818 7.64477 78.5391 7.3875C78.7964 7.13023 78.9066 6.76269 78.9066 6.3584C78.7964 5.77035 78.5758 5.36606 78.1348 5.07203Z" fill="#090B2B"/>
<path d="M31.9375 5.10864V5.80696L32.7093 5.88047C33.2973 5.95397 33.7016 6.10099 33.8854 6.32151C33.9589 6.39501 33.9956 6.46852 34.0324 6.54203C34.0692 6.61553 34.1059 6.68904 34.1059 6.83605C34.1059 6.94632 34.1427 7.09333 34.1427 7.2771C34.1427 7.46086 34.1427 7.71814 34.1427 8.01216V16.6492C34.1427 16.9433 34.1427 17.2005 34.1427 17.3843C34.1427 17.5681 34.1059 17.7151 34.1059 17.8253C34.1059 17.9356 34.0692 18.0459 34.0324 18.1194C33.9956 18.1929 33.9589 18.2664 33.8854 18.3031C33.7016 18.5604 33.2973 18.7074 32.7093 18.7442L31.9375 18.8177V19.516H38.8103V18.8177L37.818 18.7442C37.2299 18.7074 36.8624 18.5604 36.6419 18.3031C36.5684 18.2296 36.5316 18.1929 36.5316 18.1194C36.4949 18.0459 36.4949 17.9356 36.4581 17.8253C36.4214 17.7151 36.4214 17.5681 36.4214 17.3843C36.4214 17.2005 36.4214 16.98 36.4214 16.6492V13.3047H38.2958C38.5163 13.3047 38.7001 13.3414 38.8471 13.3782C39.0309 13.4149 39.2146 13.4884 39.3616 13.5987C39.5087 13.709 39.6189 13.856 39.7292 14.0765C39.8394 14.2603 39.9497 14.5175 40.0232 14.8116L40.207 15.3996H41.0523V10.2909H40.207L40.06 10.8789C39.9497 11.2097 39.8394 11.467 39.7659 11.6508C39.6557 11.8713 39.5454 12.0183 39.3984 12.1286C39.2514 12.2388 39.1044 12.3491 38.9206 12.3858C38.8103 12.4226 38.7001 12.4226 38.5163 12.4593H36.3846V6.02748H38.7368C39.4352 6.02748 40.0232 6.06423 40.4643 6.13774C40.9053 6.21125 41.2728 6.35826 41.5301 6.57878C41.7874 6.7993 41.9711 7.09333 42.0446 7.46086C42.1549 7.8284 42.1917 8.34295 42.2284 8.931H43.0737V5.10864H31.9375Z" fill="#090B2B"/>
</g>
<defs>
<clipPath id="clip0_1_2742">
<rect width="104" height="24" fill="white"/>
</clipPath>
</defs>
</svg>

<svg xmlns="http://www.w3.org/2000/svg" width="277.333" height="64" fill="none" viewBox="0 0 104 24"><g clip-path="url(#a)"><path fill="#3B2FC9" d="M5.917 13.121a1.496 1.496 0 0 1-1.102.441H1.139c-.33 0-.588-.11-.808-.33-.184-.221-.331-.479-.331-.81V1.14C0 .81.147.551.33.331.552.147.846 0 1.14 0H7.901c.33 0 .588.147.809.33.22.221.33.479.33.81v8.195c0 .405-.147.809-.44 1.066l-1.324 1.323-1.36 1.397ZM10.808 5.917a1.472 1.472 0 0 1-.44-1.066V1.14c0-.33.146-.588.33-.808.22-.184.515-.331.809-.331H22.79c.33 0 .588.147.809.33.22.221.33.479.33.81V7.901c0 .33-.147.588-.33.809-.221.22-.478.33-.81.33h-8.232c-.404 0-.808-.147-1.103-.44l-1.323-1.324-1.323-1.36ZM18.044 10.879a1.496 1.496 0 0 1 1.102-.441H22.785c.33 0 .588.147.808.33.22.221.331.479.331.81v11.246c0 .33-.147.588-.33.808-.221.221-.479.331-.81.331H16.023c-.33 0-.588-.147-.808-.33a1.08 1.08 0 0 1-.331-.81v-8.195c0-.404.147-.809.44-1.066l1.324-1.323 1.397-1.36ZM13.121 18.083c.294.294.441.661.441 1.102v3.676c0 .33-.147.588-.33.808-.221.22-.479.331-.81.331H1.14c-.33 0-.588-.147-.808-.33-.184-.221-.331-.515-.331-.81V16.099c0-.33.147-.588.33-.808.221-.221.479-.331.81-.331h8.195c.405 0 .809.147 1.066.44l1.323 1.324 1.397 1.36Z"/><path fill="#090B2B" d="M61.893 18.083c-.147.11-.294.22-.405.294-.11.073-.184.11-.257.147a.62.62 0 0 1-.184.073h-.22a.644.644 0 0 1-.625-.404c-.11-.294-.184-.809-.184-1.58v-3.566c0-.624-.037-1.139-.11-1.47a3.033 3.033 0 0 0-.368-.955c-.588-.92-1.727-1.397-3.381-1.397-1.213 0-2.205.22-2.94.625-.735.404-1.066.992-1.066 1.727 0 .368.11.699.33.92.221.22.515.367.846.367.368 0 .698-.11.919-.331.22-.22.367-.515.367-.845 0-.295-.11-.552-.294-.736l-.22-.22c-.037-.037-.037-.037-.037-.073 0-.074.037-.148.147-.258.11-.073.22-.147.368-.22.147-.074.33-.11.514-.147.184-.037.404-.037.588-.037.993 0 1.654.294 1.985.882.073.147.147.257.184.404.036.11.073.294.11.478.037.184.037.404.073.662 0 .294.037.624.037.992l-2.021.368-.809.147c-.404.073-.772.147-1.029.22-.294.074-.551.147-.772.22a2.93 2.93 0 0 0-.588.295 5.4 5.4 0 0 0-.478.33c-.514.478-.771 1.14-.771 1.985 0 .919.257 1.654.808 2.168.515.515 1.25.81 2.169.81.661 0 1.286-.148 1.837-.442.552-.294 1.103-.772 1.691-1.433.074.294.147.551.184.698.073.147.147.294.257.441.147.22.33.368.551.478.22.11.441.184.699.184.404 0 .771-.11 1.139-.294.367-.184.809-.552 1.286-.993l-.33-.514Zm-3.786-4.117v1.69c0 .736-.11 1.324-.33 1.692-.221.367-.515.661-.92.882-.404.22-.845.33-1.286.33-.588 0-1.066-.183-1.397-.55-.367-.368-.514-.846-.514-1.434 0-.956.44-1.58 1.286-1.911a9.89 9.89 0 0 1 1.176-.331c.478-.074 1.14-.22 1.985-.368ZM69.388 18.23c-.367.147-.698.257-.919.294-.22.073-.44.073-.624.073-.552 0-.956-.147-1.213-.478-.258-.33-.404-.808-.404-1.433v-6.138h3.013V9.85h-3.013V5.807h-.478l-1.397 1.397v2.609h-2.462v.698h2.462v6.873c0 .772.184 1.397.551 1.764.368.405.92.588 1.618.588.477 0 .955-.073 1.433-.257.478-.147 1.029-.44 1.654-.808l-.22-.441ZM82.218 8.16c.368 0 .699-.111.956-.368.257-.258.367-.552.367-.92 0-.367-.11-.66-.367-.918-.257-.257-.552-.368-.92-.368-.33 0-.66.11-.918.368a1.194 1.194 0 0 0-.367.882c0 .368.11.662.367.919.22.257.551.404.882.404ZM102.913 17.127c-.294.33-.588.588-.845.809-.257.22-.515.367-.772.514-.257.11-.515.22-.809.258-.294.036-.588.073-.955.073-1.213 0-2.132-.404-2.757-1.213a3.504 3.504 0 0 1-.551-1.25c-.11-.477-.147-1.102-.147-1.91h7.682a16.405 16.405 0 0 0-.184-1.802 4.936 4.936 0 0 0-.478-1.286c-.368-.662-.919-1.176-1.654-1.544-.735-.367-1.544-.55-2.462-.55-.772 0-1.47.11-2.096.367a4.71 4.71 0 0 0-1.58 1.029c-.44.44-.772.992-.992 1.654a6.878 6.878 0 0 0-.368 2.168c0 .809.11 1.544.368 2.205.22.662.588 1.213.992 1.691.441.478.956.808 1.58 1.066.625.257 1.324.367 2.096.367.477 0 .882-.036 1.286-.11.404-.073.772-.22 1.103-.404a4.646 4.646 0 0 0 1.029-.698c.33-.295.698-.625 1.029-1.03l-.515-.404Zm-4.043-7.24c.919 0 1.581.294 1.985.882.404.588.662 1.543.772 2.94H96.04c.11-1.36.368-2.352.809-2.94.44-.588 1.14-.882 2.021-.882ZM48.667 18.67a1.003 1.003 0 0 1-.441-.33c-.11-.147-.147-.368-.184-.625-.037-.257-.037-.625-.037-1.066V4.153l-3.785.919v.698c.367 0 .698.037.919.11.257.074.44.184.55.331.148.147.221.368.295.662.036.294.073.661.073 1.102v8.674c0 .441 0 .772-.037 1.066-.036.257-.073.478-.183.625-.11.147-.258.257-.441.33-.184.074-.441.11-.772.184l-.515.037v.662h5.88v-.662l-.514-.036a2.938 2.938 0 0 1-.808-.184ZM84.2 18.67a1.003 1.003 0 0 1-.44-.33c-.11-.147-.148-.368-.184-.625-.037-.257-.037-.625-.037-1.066V8.931l-3.786.919v.698c.368 0 .699.037.92.11a1.3 1.3 0 0 1 .587.331c.147.147.22.368.294.662.037.294.074.661.074 1.102v3.933c0 .44 0 .772-.037 1.066-.037.257-.074.478-.184.625-.11.147-.257.257-.44.33-.185.074-.442.11-.773.184l-.514.037v.661h5.88v-.661l-.514-.037a4.428 4.428 0 0 1-.846-.22ZM91.515 18.67a1.003 1.003 0 0 1-.44-.33c-.111-.147-.148-.368-.185-.625-.036-.257-.036-.625-.036-1.066V4.153l-3.75.956v.698c.368 0 .699.037.92.11.257.074.44.184.588.331.147.147.22.368.294.662.036.294.073.661.073 1.102v8.674c0 .441 0 .772-.037 1.066-.036.257-.073.478-.183.625-.11.147-.258.257-.441.33-.184.074-.442.11-.772.184l-.515.037v.662h5.88v-.662l-.514-.037a6.057 6.057 0 0 1-.882-.22ZM78.135 5.072c-.441-.294-.993-.478-1.69-.478-1.03 0-1.875.331-2.5.993-.625.661-.919 1.58-.919 2.72v.881c0 .22.037.405.037.625h-1.985v.698h1.985v6.138c0 .441 0 .772-.037 1.066-.037.258-.073.478-.184.625-.11.147-.257.257-.44.33-.184.074-.442.111-.773.185l-.514.036v.662h6.027v-.662l-.661-.036c-.33-.074-.588-.11-.772-.184a1.004 1.004 0 0 1-.441-.331c-.11-.147-.147-.367-.184-.625-.037-.257-.037-.625-.037-1.066v-6.1h2.72V9.85h-2.72c-.036-.074-.33-.956-.477-1.911-.074-.588-.074-1.066.037-1.47.11-.515.367-.846.771-1.03h.147c.184-.073.368-.11.552-.11.183 0 .367.037.55.11.148.074.258.148.258.221 0 .037-.037.11-.11.184-.22.22-.368.514-.368.845 0 .331.11.588.331.809.22.22.515.294.846.294.367 0 .698-.147.955-.404.257-.258.368-.625.368-1.03-.11-.588-.331-.992-.772-1.286ZM31.938 5.109v.698l.771.073c.588.074.993.221 1.176.442.074.073.11.147.147.22a.569.569 0 0 1 .074.294c0 .11.037.257.037.441v10.107c0 .184-.037.331-.037.441 0 .11-.037.22-.074.294-.036.074-.073.147-.147.184-.183.257-.588.404-1.176.441l-.772.074v.698h6.873v-.698l-.992-.074c-.588-.037-.956-.184-1.176-.44-.074-.074-.11-.111-.11-.185-.037-.073-.037-.183-.074-.294-.037-.11-.037-.257-.037-.44v-4.08h1.875c.22 0 .404.036.551.073.184.037.368.11.515.22.147.111.257.258.367.478.11.184.22.441.294.736l.184.588h.845v-5.11h-.845l-.147.589c-.11.33-.22.588-.294.772-.11.22-.22.367-.368.478-.147.11-.294.22-.477.257-.11.037-.22.037-.405.073h-2.131V6.027h2.352c.698 0 1.286.037 1.727.11.441.074.809.221 1.066.442.257.22.441.514.515.882.11.367.147.882.183 1.47h.846V5.109H31.938Z"/></g><defs><clipPath id="a"><path fill="#fff" d="M0 0h104v24H0z"/></clipPath></defs></svg>
